X:18845
T:Winnipeg Reel
R:reel
M:2/4
L:1/16
K:D
AG|FA2F ABAF|GB2B B2ed|cAce aece|defd A2AG|
FA2F ABAF|GB2B B2ed|cAce aece|d2f2 d2:|
|:fg|a2f2 dcde|gfed B4|gfed cABc|defd A2fg|
a2f2 dcde|gfed B4|gfed cABc|d2f2 d2:|


